packages/ui-icons/svg/Solid/rotate-left.svg

<svg viewBox="0 0 1920 1920" xmlns="http://www.w3.org/2000/svg">
    <path fill-rule="evenodd" clip-rule="evenodd" d="M1251.45 447.883 1120 316.432h160c176.73 0 320 143.269 320 320h106.67c0-235.641-191.03-426.666-426.67-426.666h-159.97l134.34-134.341L1178.94 0 915.833 263.111l260.197 260.196 75.42-75.424Zm28.55 405.45C1280 735.513 1184.49 640 1066.67 640H213.333C95.513 640 0 735.513 0 853.333v853.337C0 1824.49 95.513 1920 213.333 1920h853.337c117.82 0 213.33-95.51 213.33-213.33V853.333Z"/>
</svg>

<svg viewBox="0 0 1920 1920" xmlns="http://www.w3.org/2000/svg">
    <path fill-rule="evenodd" clip-rule="evenodd" stroke="none" stroke-width="1" d="M1251.45 447.883L1120 316.432H1280C1456.73 316.432 1600 459.701 1600 636.432H1706.67C1706.67 400.791 1515.64 209.766 1280 209.766H1120.03L1254.37 75.4247L1178.94 0L915.833 263.111L1176.03 523.307L1251.45 447.883Z M1280 853.333C1280 735.513 1184.49 640 1066.67 640H213.333C95.5126 640 0 735.513 0 853.333V1706.67C0 1824.49 95.5126 1920 213.333 1920H1066.67C1184.49 1920 1280 1824.49 1280 1706.67V853.333Z"/>
</svg>
